X: 8622
T: Crooked Road To Bracey
R: reel
M: 4/4
K: Cmajor
|:A,CDF (3EFE DC|A,CDG EC D2|[AD]2 Ac (3BcB AG|EGAd BG A2|
[AD]3 c BGAd|BGAB (3BcB Ac|dfed (3cdc AG|1 ADDC D2 DC:|2 ADDC D2 Ac||
|:d3 e (3ded cG|AcdA c3 a|gage dAde|fA (3ded cGAc|
d3 e (3ded cG|AcdA c3 c|(3BcB AG ADFG|1 ADDC D2 Ac:|2 ADDC D2 DC||

